build/img/daikin.svg

<svg width="109" height="40" viewBox="0 0 109 40" fill="none" xmlns="http://www.w3.org/2000/svg">
<g clip-path="url(#clip0)">
<path fill-rule="evenodd" clip-rule="evenodd" d="M0.000366211 25.9459V37.5233L24.825 14.3586H12.4109L0.000366211 25.9459Z" fill="white"/>
<path d="M11 14.3586H0V24.4541L11 14.3586Z" fill="white"/>
<path d="M59.4911 19.3872L56.2507 32.4907H61.9757L65.2144 19.3872H59.4911ZM45.6001 19.3852L38.2365 32.4887H42.0233L43.2455 30.3043H48.5024L48.8939 32.4887H54.4829L52.1071 19.3852H45.6001ZM46.4145 26.9811H45.1015L47.2185 23.2015L47.9053 26.9811H46.4145ZM85.6379 19.3872L82.4064 32.4907H88.1301L91.3641 19.3872H85.6379ZM83.0796 19.3872H77.2128L72.3022 23.6736L73.3737 19.3872H67.8864L64.654 32.4907H70.1246L71.2419 27.9668L74.167 32.4907H80.7884L75.8842 25.6285L83.0796 19.3872ZM33.4531 19.3933L31.9726 19.3884H24.8087L21.5775 32.487H28.6904L31.5051 32.4907C35.4673 32.4907 39.367 29.5085 39.367 24.9391C39.3662 19.5622 33.4531 19.3933 33.4531 19.3933ZM33.7437 25.3419C33.7437 25.3419 33.3718 29.5984 29.7858 29.5984H27.7569L29.5439 22.5307H31.3851C32.044 22.5355 33.951 22.7076 33.7437 25.3419ZM105.036 19.3852L103.126 27.1013L100.583 19.3852H94.2162L90.9818 32.4907H94.9408L96.8686 24.7073L99.4205 32.4907H105.76L109 19.3852H105.036Z" fill="white"/>
</g>
<defs>
<clipPath id="clip0">
<rect width="109" height="40" fill="white"/>
</clipPath>
</defs>
</svg>

<svg width="109" height="40" viewBox="0 0 109 40" fill="none" xmlns="http://www.w3.org/2000/svg"><g clip-path="url(#clip0)" fill="#fff"><path fill-rule="evenodd" clip-rule="evenodd" d="M0 25.946v11.577L24.825 14.36H12.411L0 25.946z"/><path d="M11 14.359H0v10.095L11 14.36zm48.491 5.028l-3.24 13.104h5.725l3.238-13.104h-5.723zm-13.89-.002L38.236 32.49h3.786l1.222-2.185h5.257l.392 2.185h5.589l-2.376-13.104H45.6zm.813 7.596h-1.313l2.117-3.78.687 3.78h-1.49zm39.224-7.594l-3.232 13.104h5.724l3.234-13.104h-5.726zm-2.558 0h-5.867l-4.91 4.287 1.07-4.287h-5.487l-3.232 13.104h5.47l1.118-4.524 2.925 4.524h6.621l-4.904-6.863 7.196-6.24zm-49.627.006l-1.48-.005h-7.164l-3.232 13.099h7.113l2.815.004c3.962 0 7.862-2.982 7.862-7.552 0-5.377-5.914-5.546-5.914-5.546zm.29 5.949s-.371 4.256-3.957 4.256h-2.03l1.788-7.067h1.841c.659.005 2.566.177 2.359 2.81zm71.293-5.957l-1.91 7.716-2.543-7.716h-6.367l-3.234 13.106h3.959l1.928-7.784 2.552 7.784h6.339L109 19.385h-3.964z"/></g><defs><clipPath id="clip0"><path fill="#fff" d="M0 0h109v40H0z"/></clipPath></defs></svg>
